material/.icons/material/view-compact.svg

<svg xmlns="http://www.w3.org/2000/svg" viewBox="0 0 24 24"><path d="M3 19h6v-7H3v7m7 0h12v-7H10v7M3 5v6h19V5H3z"/></svg>

<?xml version="1.0" encoding="UTF-8"?><!DOCTYPE svg PUBLIC "-//W3C//DTD SVG 1.1//EN" "http://www.w3.org/Graphics/SVG/1.1/DTD/svg11.dtd"><svg xmlns="http://www.w3.org/2000/svg" xmlns:xlink="http://www.w3.org/1999/xlink" version="1.1" id="mdi-view-compact" width="24" height="24" viewBox="0 0 24 24"><path d="M3,19H9V12H3V19M10,19H22V12H10V19M3,5V11H22V5H3Z" /></svg>
